24x24/apps/litecoin-qt.svg

<svg xmlns="http://www.w3.org/2000/svg" width="24" height="24" version="1.1">
 <path opacity=".2" d="m2.0098 12.207a10 10 0 0 0 -0.0098 0.293 10 10 0 0 0 10 10 10 10 0 0 0 10 -10 10 10 0 0 0 -0.0098 -0.20703 10 10 0 0 1 -9.99 9.707 10 10 0 0 1 -9.9902 -9.793z"/>
 <circle style="fill:#f4f4f7" cx="12" cy="12.053" r="8.571"/>
 <path style="opacity:.2;fill:#f4f4f7" d="m12 2.0525735a10.000179 10.007685 0 0 0 -10 10.007852 10.000179 10.007685 0 0 0 0.007673 0.145061 10.000179 10.007685 0 0 1 9.992327 -9.7958389 10.000179 10.007685 0 0 1 9.992327 9.8572109 10.000179 10.007685 0 0 0 0.007673 -0.206433 10.000179 10.007685 0 0 0 -10 -10.007852z"/>
 <path style="fill:#4f4f4f" d="M 12,1.9999997 A 10,10 0 0 0 2,12 10,10 0 0 0 12,22 10,10 0 0 0 21.999999,12 10,10 0 0 0 12,1.9999997 Z"/>
 <path style="opacity:0.2" d="M 12.000001,5.4999981 A 7.0000009,7.0000009 0 0 1 19,12.499999 7.0000009,7.0000009 0 0 1 12.000001,19.5 7.0000009,7.0000009 0 0 1 5,12.499999 7.0000009,7.0000009 0 0 1 12.000001,5.4999981 Z"/>
 <path style="fill:#f4f4f7" d="M 12.000001,4.9999991 A 7.0000009,7.0000009 0 0 1 19,12 7.0000009,7.0000009 0 0 1 12.000001,19.000001 7.0000009,7.0000009 0 0 1 5,12 7.0000009,7.0000009 0 0 1 12.000001,4.9999991 Z"/>
 <path style="fill:#4f4f4f" d="M 10.1,6 8.7659297,10.257115 7.6645068,10.642857 7.0000001,13.285714 8.0030693,12.934849 7.0000001,16 h 4.2857139 5.049779 L 17,13 h -4.860047 l 0.616186,-1.728795 1.586607,-0.485491 0.664507,-2.6428573 -1.487556,0.450614 L 14.4,6 Z"/>
 <path style="fill:#f4f4f7;opacity:0.1" d="M 12 2 A 10 10 0 0 0 2 12 A 10 10 0 0 0 2.0097656 12.207031 A 10 10 0 0 1 12 2.5 A 10 10 0 0 1 21.990234 12.292969 A 10 10 0 0 0 22 12 A 10 10 0 0 0 12 2 z"/>
</svg>

<svg xmlns="http://www.w3.org/2000/svg" width="24" height="24"><path opacity=".2" d="M2.01 12.207A10 10 0 0 0 2 12.5a10 10 0 0 0 10 10 10 10 0 0 0 10-10 10 10 0 0 0-.01-.207A10 10 0 0 1 12 22a10 10 0 0 1-9.99-9.793z"/><circle style="fill:#f4f4f7" cx="12" cy="12.053" r="8.571"/><path style="opacity:.2;fill:#f4f4f7" d="M12 2.053A10 10.008 0 0 0 2 12.06a10 10.008 0 0 0 .008.145A10 10.008 0 0 1 12 2.41a10 10.008 0 0 1 9.992 9.857A10 10.008 0 0 0 22 12.06 10 10.008 0 0 0 12 2.053z"/><path style="fill:#4f4f4f" d="M12 2A10 10 0 0 0 2 12a10 10 0 0 0 10 10 10 10 0 0 0 10-10A10 10 0 0 0 12 2z"/><path style="opacity:.2" d="M12 5.5a7 7 0 0 1 7 7 7 7 0 0 1-7 7 7 7 0 0 1-7-7 7 7 0 0 1 7-7z"/><path style="fill:#f4f4f7" d="M12 5a7 7 0 0 1 7 7 7 7 0 0 1-7 7 7 7 0 0 1-7-7 7 7 0 0 1 7-7z"/><path style="fill:#4f4f4f" d="m10.1 6-1.334 4.257-1.101.386L7 13.286l1.003-.351L7 16H16.336L17 13h-4.86l.616-1.729 1.587-.485.664-2.643-1.487.45L14.4 6z"/><path style="fill:#f4f4f7;opacity:.1" d="M12 2A10 10 0 0 0 2 12a10 10 0 0 0 .01.207A10 10 0 0 1 12 2.5a10 10 0 0 1 9.99 9.793A10 10 0 0 0 22 12 10 10 0 0 0 12 2z"/></svg>
